; generated by PrusaSlicer 2.8.1 on 2024-10-04 at 20:20:43 UTC

; 

; external perimeters extrusion width = 0.63mm
; perimeters extrusion width = 0.66mm
; infill extrusion width = 0.66mm
; solid infill extrusion width = 0.66mm
; top infill extrusion width = 0.60mm
; first layer extrusion width = 0.63mm

M201 X500 Y500 Z100 E5000 ; sets maximum accelerations, mm/sec^2
M203 X500 Y500 Z10 E60 ; sets maximum feedrates, mm / sec
M204 S500 T1000 ; sets acceleration (S) and retract acceleration (R), mm/sec^2
M205 X8.00 Y8.00 Z0.40 E5.00 ; sets the jerk limits, mm/sec
M205 S0 T0 ; sets the minimum extruding and travel feed rate, mm/sec

; printing object case.stl id:0 copy 0
; stop printing object case.stl id:0 copy 0

;TYPE:Custom
G90 ; use absolute coordinates
M83 ; extruder relative mode
M104 S150 ; set temporary nozzle temp to prevent oozing during homing
M140 S65 ; set final bed temp
G4 S30 ; allow partial nozzle warmup
G28 ; home all axis
G1 Z50 F240
G1 X2.0 Y10 F3000
M104 S215 ; set final nozzle temp
M190 S65 ; wait for bed temp to stabilize
M109 S215 ; wait for nozzle temp to stabilize
G1 Z0.28 F240
G92 E0
G1 X2.0 Y140 E10 F1500 ; prime the nozzle
G1 X2.3 Y140 F5000
G92 E0
G1 X2.3 Y10 E10 F1200 ; prime the nozzle
G92 E0
G21 ; set units to millimeters
G90 ; use absolute coordinates
M83 ; use relative distances for extrusion
; Filament gcode
M107
;LAYER_CHANGE
;Z:0.3
;HEIGHT:0.3
G1 E-5 F3600
G1 Z.3 F9000
G1 X79.734 Y84.397
G1 Z.3
G1 E5 F2400
M204 S500
;TYPE:Skirt/Brim
;WIDTH:0.63
G1 F1200
G1 X132.328 Y34.71 E5.10429
G1 X133.143 Y34.12 E.07098
G1 X134.538 Y33.492 E.10793
G1 X135.998 Y33.223 E.10473
G1 X137.004 Y33.239 E.07098
G1 X160.852 Y36.547 E1.69852
G1 X161.627 Y36.711 E.05588
G1 X163.129 Y37.336 E.11477
G1 X164.007 Y37.95 E.07558
G1 X164.768 Y38.703 E.07553
G1 X165.632 Y40.026 E.11147
G1 X166.032 Y41.077 E.07933
G1 X197.088 Y139.391 E7.27359
G1 X197.321 Y140.953 E.11141
G1 X197.252 Y142.045 E.07719
G1 X196.808 Y143.597 E.11388
G1 X196.287 Y144.56 E.07724
G1 X195.222 Y145.794 E.11499
G1 X142.585 Y189.266 E4.81609
G1 X141.37 Y189.895 E.09652
G1 X121.868 Y197.381 E1.47369
G1 X120.762 Y197.691 E.08103
G1 X119.274 Y197.789 E.1052
G1 X92.059 Y196.303 E1.9228
G1 X90.905 Y196.132 E.0823
G1 X63.007 Y189.249 E2.02714
G1 X37.437 Y178.048 E1.96938
G1 X36.304 Y177.396 E.09222
G1 X35.178 Y176.36 E.10794
G1 X34.316 Y175.041 E.11116
G1 X33.819 Y173.593 E.108
G1 X33.678 Y172.294 E.09218
G1 X33.678 Y130.611 E2.94062
G1 X33.723 Y129.903 E.05005
G1 X33.904 Y128.96 E.06774
G1 X34.227 Y128.055 E.06779
G1 X34.683 Y127.211 E.06768
G1 X35.543 Y126.146 E.09657
G1 X79.669 Y84.459 E4.28246
G1 E-3.5 F3600
;WIPE_START
G1 F7200
G1 X79.734 Y84.397 E-.04267
G1 X81.964 Y82.29 E-1.45733
;WIPE_END
; printing object case.stl id:0 copy 0
G1 X138.853 Y115.571 F9000
G1 E5 F2400
;TYPE:Perimeter
;WIDTH:0.63
G1 F1200
G1 X139.077 Y115.124 E.03527
G1 X139.434 Y114.662 E.04119
G1 X139.875 Y114.279 E.04121
G1 X140.382 Y113.99 E.04117
G1 X140.936 Y113.805 E.0412
G1 X141.446 Y113.738 E.03629
G1 X142.073 Y113.77 E.04429
G1 X142.661 Y113.926 E.04292
G1 X143.183 Y114.187 E.04117
G1 X143.645 Y114.545 E.04123
G1 X144.027 Y114.985 E.04111
G1 X144.317 Y115.492 E.04121
G1 X144.502 Y116.046 E.0412
G1 X144.575 Y116.625 E.04117
G1 X144.534 Y117.208 E.04123
G1 X144.381 Y117.771 E.04116
G1 X144.12 Y118.293 E.04117
G1 X143.803 Y118.705 E.03667
G1 X143.321 Y119.138 E.04571
G1 X142.864 Y119.401 E.0372
G1 X142.313 Y119.596 E.04123
G1 X141.737 Y119.68 E.04106
G1 X141.158 Y119.651 E.0409
G1 X140.599 Y119.51 E.04067
G1 X140.081 Y119.266 E.04039
G1 X139.552 Y118.873 E.04649
G1 X139.169 Y118.432 E.04121
G1 X138.88 Y117.925 E.04117
G1 X138.695 Y117.371 E.0412
G1 X138.664 Y117.222 E.01074
G1 X138.617 Y116.724 E.03529
G1 X138.662 Y116.209 E.03647
G1 X138.814 Y115.652 E.04073
G1 X138.814 Y115.652 F9000
G1 X139.37 Y115.786
;TYPE:External perimeter
G1 F1200
G1 X139.378 Y115.759 E.00199
G1 X139.606 Y115.344 E.0334
G1 X139.911 Y114.982 E.03339
G1 X140.28 Y114.686 E.03337
G1 X140.7 Y114.467 E.03342
G1 X141.154 Y114.335 E.03335
G1 X141.549 Y114.3 E.02798
G1 X142.054 Y114.337 E.03572
G1 X142.548 Y114.489 E.03646
G1 X142.994 Y114.742 E.03617
G1 X143.325 Y115.021 E.03054
G1 X143.621 Y115.39 E.03337
G1 X143.84 Y115.813 E.0336
G1 X143.972 Y116.265 E.03322
G1 X144.013 Y116.736 E.03335
G1 X143.961 Y117.207 E.03343
G1 X143.818 Y117.658 E.03338
G1 X143.59 Y118.073 E.0334
G1 X143.286 Y118.435 E.03335
G1 X142.905 Y118.738 E.03434
G1 X142.497 Y118.95 E.03244
G1 X142.042 Y119.082 E.03342
G1 X141.571 Y119.123 E.03335
G1 X141.1 Y119.071 E.03343
G1 X140.649 Y118.928 E.03338
G1 X140.234 Y118.701 E.03337
G1 X139.871 Y118.396 E.03345
G1 X139.575 Y118.027 E.03337
G1 X139.357 Y117.607 E.03338
G1 X139.225 Y117.157 E.03308
G1 X139.184 Y116.681 E.0337
G1 X139.236 Y116.21 E.03343
G1 X139.343 Y115.872 E.02501
G1 E-3.5 F3600
;WIPE_START
G1 F7200
G1 X139.37 Y115.786 E-.04282
G1 X139.378 Y115.759 E-.01338
G1 X139.606 Y115.344 E-.22492
G1 X139.911 Y114.982 E-.22485
G1 X140.28 Y114.686 E-.2247
G1 X140.7 Y114.467 E-.22499
G1 X141.154 Y114.335 E-.22458
G1 X141.549 Y114.3 E-.18836
G1 X141.825 Y114.32 E-.1314
;WIPE_END
G1 X136.579 Y91.902 F9000
G1 E5 F2400
;TYPE:Perimeter
G1 F1200
G1 X136.082 Y91.965 E.03534
G1 X135.5 Y91.924 E.04116
G1 X134.937 Y91.77 E.04118
G1 X134.414 Y91.51 E.0412
G1 X133.953 Y91.152 E.04118
G1 X133.57 Y90.711 E.04121
G1 X133.28 Y90.204 E.04121
G1 X133.095 Y89.651 E.04114
G1 X133.022 Y89.071 E.04124
G1 X133.063 Y88.489 E.04116
G1 X133.217 Y87.926 E.04118
G1 X133.477 Y87.403 E.0412
G1 X133.835 Y86.942 E.04118
G1 X134.276 Y86.559 E.04121
G1 X134.783 Y86.269 E.04121
G1 X135.337 Y86.084 E.0412
G1 X135.847 Y86.018 E.03628
G1 X136.474 Y86.05 E.04429
G1 X137.061 Y86.206 E.04285
G1 X137.584 Y86.467 E.04124
G1 X138.045 Y86.824 E.04113
G1 X138.163 Y86.942 E.01177
G1 X138.521 Y87.403 E.04118
G1 X138.781 Y87.926 E.0412
G1 X138.935 Y88.489 E.04118
G1 X138.98 Y88.987 E.03528
G1 X138.935 Y89.487 E.03542
G1 X138.781 Y90.051 E.04125
G1 X138.521 Y90.573 E.04114
G1 X138.163 Y91.035 E.04123
G1 X137.722 Y91.417 E.04116
G1 X137.215 Y91.707 E.04121
G1 X136.668 Y91.89 E.04069
G1 X136.668 Y91.89 F9000
G1 X136.47 Y91.354
;TYPE:External perimeter
G1 F1200
G1 X136.443 Y91.361 E.00197
G1 X135.971 Y91.402 E.03342
G1 X135.501 Y91.351 E.03335
G1 X135.049 Y91.208 E.03345
G1 X134.635 Y90.98 E.03334
G1 X134.272 Y90.676 E.0334
G1 X133.976 Y90.306 E.03343
G1 X133.758 Y89.886 E.03338
G1 X133.626 Y89.432 E.03335
G1 X133.585 Y88.96 E.03342
G1 X133.637 Y88.49 E.03336
G1 X133.814 Y87.974 E.03848
G1 X134.007 Y87.624 E.0282
G1 X134.311 Y87.261 E.0334
G1 X134.681 Y86.965 E.03343
G1 X135.101 Y86.747 E.03338
G1 X135.555 Y86.615 E.03335
G1 X135.95 Y86.58 E.02798
G1 X136.457 Y86.616 E.03586
G1 X136.938 Y86.763 E.03548
G1 X137.363 Y86.996 E.03419
G1 X137.726 Y87.301 E.03345
G1 X138.022 Y87.67 E.03337
G1 X138.24 Y88.09 E.03338
G1 X138.372 Y88.544 E.03335
G1 X138.413 Y89.016 E.03342
G1 X138.362 Y89.486 E.03335
G1 X138.219 Y89.938 E.03345
G1 X137.991 Y90.352 E.03334
G1 X137.687 Y90.715 E.0334
G1 X137.281 Y91.03 E.03625
G1 X136.897 Y91.229 E.03051
G1 X136.556 Y91.328 E.02505
G1 E-3.5 F3600
;WIPE_START
G1 F7200
G1 X136.47 Y91.354 E-.04268
G1 X136.443 Y91.361 E-.01325
G1 X135.971 Y91.402 E-.22504
G1 X135.501 Y91.351 E-.22456
G1 X135.049 Y91.208 E-.22519
G1 X134.635 Y90.98 E-.2245
G1 X134.272 Y90.676 E-.2249
G1 X133.976 Y90.306 E-.22507
G1 X133.884 Y90.129 E-.09481
;WIPE_END
G1 X147.038 Y49.511 F9000
G1 E5 F2400
;TYPE:Perimeter
G1 F1200
G1 X146.556 Y49.379 E.03526
G1 X146.033 Y49.118 E.04124
G1 X145.572 Y48.761 E.04113
G1 X145.189 Y48.32 E.04121
G1 X144.899 Y47.813 E.04121
G1 X144.714 Y47.259 E.0412
G1 X144.637 Y46.597 E.04702
G1 X144.682 Y46.098 E.03535
G1 X144.836 Y45.534 E.04125
G1 X145.096 Y45.012 E.04114
G1 X145.454 Y44.55 E.04123
G1 X145.895 Y44.168 E.04116
G1 X146.402 Y43.878 E.04121
G1 X146.956 Y43.693 E.0412
G1 X147.466 Y43.626 E.03629
G1 X148.093 Y43.658 E.04429
G1 X148.681 Y43.814 E.04292
G1 X149.203 Y44.075 E.04117
G1 X149.664 Y44.433 E.04118
G1 X150.047 Y44.874 E.04121
G1 X150.337 Y45.381 E.04121
G1 X150.522 Y45.934 E.04114
G1 X150.595 Y46.514 E.04124
G1 X150.554 Y47.096 E.04116
G1 X150.4 Y47.659 E.04118
G1 X150.14 Y48.182 E.0412
G1 X149.782 Y48.643 E.04118
G1 X149.341 Y49.026 E.04121
G1 X148.834 Y49.315 E.04117
G1 X148.28 Y49.5 E.0412
G1 X147.701 Y49.574 E.04118
G1 X147.125 Y49.533 E.04074
G1 X147.125 Y49.533 F9000
G1 X147.148 Y48.962
;TYPE:External perimeter
G1 F1200
G1 X147.12 Y48.959 E.00199
G1 X146.669 Y48.817 E.03336
G1 X146.254 Y48.589 E.0334
G1 X145.891 Y48.284 E.03345
G1 X145.595 Y47.915 E.03337
G1 X145.377 Y47.495 E.03338
G1 X145.245 Y47.041 E.03335
G1 X145.202 Y46.597 E.03147
G1 X145.256 Y46.099 E.03534
G1 X145.398 Y45.647 E.03342
G1 X145.626 Y45.232 E.0334
G1 X145.93 Y44.87 E.03335
G1 X146.3 Y44.574 E.03343
G1 X146.72 Y44.356 E.03338
G1 X147.174 Y44.223 E.03337
G1 X147.569 Y44.189 E.02797
G1 X148.073 Y44.225 E.03565
G1 X148.568 Y44.377 E.03653
G1 X148.982 Y44.605 E.03334
G1 X149.345 Y44.909 E.0334
G1 X149.641 Y45.278 E.03337
G1 X149.859 Y45.698 E.03338
G1 X149.991 Y46.153 E.03342
G1 X150.032 Y46.624 E.03335
G1 X149.98 Y47.095 E.03343
G1 X149.838 Y47.546 E.03336
G1 X149.61 Y47.961 E.0334
G1 X149.306 Y48.323 E.03335
G1 X148.936 Y48.62 E.03347
G1 X148.516 Y48.838 E.03338
G1 X148.062 Y48.97 E.03335
G1 X147.59 Y49.011 E.03342
G1 X147.237 Y48.972 E.02505
G1 E-3.5 F3600
;WIPE_START
G1 F7200
G1 X147.148 Y48.962 E-.04254
G1 X147.12 Y48.959 E-.01338
G1 X146.669 Y48.817 E-.22459
G1 X146.254 Y48.589 E-.22492
G1 X145.891 Y48.284 E-.22521
G1 X145.595 Y47.915 E-.2247
G1 X145.377 Y47.495 E-.22477
G1 X145.245 Y47.041 E-.22458
G1 X145.226 Y46.841 E-.09531
;WIPE_END
G1 X94.203 Y115.028 F9000
G1 E5 F2400
;TYPE:Perimeter
G1 F1200
G1 X94.599 Y115.334 E.03531
G1 X94.981 Y115.775 E.04116
G1 X95.271 Y116.282 E.04121
G1 X95.456 Y116.836 E.0412
G1 X95.529 Y117.415 E.04117
G1 X95.488 Y117.998 E.04123
G1 X95.335 Y118.561 E.04116
G1 X95.074 Y119.083 E.04117
G1 X94.716 Y119.545 E.04123
G1 X94.275 Y119.928 E.04121
G1 X93.768 Y120.217 E.04117
G1 X93.215 Y120.402 E.04114
G1 X92.635 Y120.475 E.04124
G1 X92.053 Y120.435 E.04116
G1 X91.366 Y120.232 E.05054
G1 X90.915 Y119.99 E.03611
G1 X90.506 Y119.662 E.03699
G1 X90.123 Y119.222 E.04115
G1 X89.833 Y118.714 E.04127
G1 X89.648 Y118.161 E.04114
G1 X89.575 Y117.581 E.04124
G1 X89.616 Y116.999 E.04116
G1 X89.77 Y116.436 E.04118
G1 X90.031 Y115.913 E.04124
G1 X90.388 Y115.452 E.04113
G1 X90.829 Y115.069 E.04121
G1 X91.336 Y114.78 E.04117
G1 X91.89 Y114.595 E.0412
G1 X92.4 Y114.528 E.03629
G1 X93.027 Y114.56 E.04429
G1 X93.615 Y114.716 E.04292
G1 X94.131 Y114.974 E.0407
G1 X94.131 Y114.974 F9000
G1 X93.892 Y115.493
;TYPE:External perimeter
G1 F1200
G1 X93.917 Y115.506 E.00199
G1 X94.279 Y115.811 E.03339
G1 X94.575 Y116.18 E.03337
G1 X94.793 Y116.6 E.03338
G1 X94.934 Y117.137 E.03917
G1 X94.966 Y117.526 E.02754
G1 X94.915 Y117.997 E.03342
G1 X94.772 Y118.448 E.03338
G1 X94.544 Y118.863 E.0334
G1 X94.194 Y119.263 E.0375
G1 X93.87 Y119.521 E.02922
G1 X93.45 Y119.739 E.03338
G1 X92.996 Y119.872 E.03337
G1 X92.524 Y119.913 E.03342
G1 X92.054 Y119.861 E.03336
G1 X91.613 Y119.723 E.0326
G1 X91.188 Y119.49 E.03419
G1 X90.825 Y119.186 E.0334
G1 X90.529 Y118.817 E.03337
G1 X90.311 Y118.397 E.03338
G1 X90.179 Y117.942 E.03342
G1 X90.138 Y117.471 E.03335
G1 X90.19 Y117 E.03343
G1 X90.332 Y116.549 E.03336
G1 X90.56 Y116.134 E.0334
G1 X90.865 Y115.772 E.03339
G1 X91.234 Y115.476 E.03337
G1 X91.654 Y115.257 E.03342
G1 X92.108 Y115.125 E.03335
G1 X92.503 Y115.09 E.02798
G1 X93.02 Y115.128 E.03657
G1 X93.502 Y115.278 E.03561
G1 X93.813 Y115.45 E.02507
G1 E-3.5 F3600
;WIPE_START
G1 F7200
G1 X93.892 Y115.493 E-.04272
G1 X93.917 Y115.506 E-.01338
G1 X94.279 Y115.811 E-.22485
G1 X94.575 Y116.18 E-.2247
G1 X94.793 Y116.6 E-.22477
G1 X94.934 Y117.137 E-.26372
G1 X94.966 Y117.526 E-.1854
G1 X94.915 Y117.997 E-.22503
G1 X94.854 Y118.188 E-.09543
;WIPE_END
G1 X54.606 Y130.677 F9000
G1 E5 F2400
;TYPE:Perimeter
G1 F1200
G1 X54.765 Y131.151 E.03527
G1 X54.838 Y131.731 E.04124
G1 X54.797 Y132.313 E.04116
G1 X54.643 Y132.876 E.04118
G1 X54.383 Y133.399 E.0412
G1 X54.025 Y133.86 E.04118
G1 X53.584 Y134.243 E.04121
G1 X53.005 Y134.567 E.04681
G1 X52.523 Y134.718 E.03563
G1 X51.944 Y134.791 E.04117
G1 X51.362 Y134.75 E.04116
G1 X50.798 Y134.596 E.04125
G1 X50.276 Y134.336 E.04114
G1 X49.815 Y133.978 E.04118
G1 X49.432 Y133.537 E.04121
G1 X49.142 Y133.03 E.04121
G1 X48.957 Y132.476 E.0412
G1 X48.884 Y131.897 E.04117
G1 X48.925 Y131.315 E.04116
G1 X49.079 Y130.751 E.04125
G1 X49.339 Y130.229 E.04114
G1 X49.697 Y129.768 E.04118
G1 X50.138 Y129.385 E.04121
G1 X50.645 Y129.095 E.04121
G1 X51.199 Y128.91 E.0412
G1 X51.709 Y128.843 E.03629
G1 X52.336 Y128.876 E.04429
G1 X52.923 Y129.032 E.04285
G1 X53.446 Y129.292 E.0412
G1 X53.907 Y129.65 E.04118
G1 X54.29 Y130.091 E.04121
G1 X54.576 Y130.592 E.0407
G1 X54.576 Y130.592 F9000
G1 X54.089 Y130.891
;TYPE:External perimeter
G1 F1200
G1 X54.102 Y130.916 E.00199
G1 X54.234 Y131.37 E.03335
G1 X54.275 Y131.842 E.03342
G1 X54.223 Y132.312 E.03336
G1 X54.081 Y132.763 E.03336
G1 X53.853 Y133.178 E.0334
G1 X53.549 Y133.541 E.0334
G1 X53.179 Y133.837 E.03343
G1 X52.786 Y134.045 E.03137
G1 X52.305 Y134.187 E.03538
G1 X51.833 Y134.228 E.03342
G1 X51.363 Y134.176 E.03336
G1 X50.911 Y134.034 E.03342
G1 X50.497 Y133.806 E.03334
G1 X50.134 Y133.501 E.03345
G1 X49.838 Y133.132 E.03337
G1 X49.62 Y132.712 E.03338
G1 X49.488 Y132.258 E.03335
G1 X49.447 Y131.786 E.03342
G1 X49.498 Y131.316 E.03335
G1 X49.641 Y130.864 E.03345
G1 X49.869 Y130.45 E.03334
G1 X50.173 Y130.087 E.0334
G1 X50.543 Y129.791 E.03343
G1 X50.963 Y129.573 E.03338
G1 X51.417 Y129.441 E.03335
G1 X51.812 Y129.406 E.02798
G1 X52.359 Y129.451 E.03872
G1 X52.81 Y129.594 E.03338
G1 X53.225 Y129.822 E.0334
G1 X53.588 Y130.126 E.0334
G1 X53.884 Y130.496 E.03343
G1 X54.048 Y130.811 E.02505
G1 E-3.5 F3600
;WIPE_START
G1 F7200
G1 X54.089 Y130.891 E-.0427
G1 X54.102 Y130.916 E-.01338
G1 X54.234 Y131.37 E-.22458
G1 X54.275 Y131.842 E-.22504
G1 X54.223 Y132.312 E-.22461
G1 X54.081 Y132.763 E-.22459
G1 X53.853 Y133.178 E-.22492
G1 X53.549 Y133.541 E-.2249
G1 X53.392 Y133.666 E-.09528
;WIPE_END
G1 X51.861 Y169.981 F9000
G1 E5 F2400
;TYPE:Perimeter
G1 F1200
G1 X52.336 Y170.006 E.03356
G1 X52.923 Y170.162 E.04285
G1 X53.446 Y170.422 E.0412
G1 X54.007 Y170.876 E.05091
G1 X54.326 Y171.267 E.0356
G1 X54.58 Y171.728 E.03713
G1 X54.765 Y172.282 E.0412
G1 X54.838 Y172.861 E.04117
G1 X54.797 Y173.443 E.04116
G1 X54.643 Y174.006 E.04118
G1 X54.383 Y174.529 E.0412
G1 X54.025 Y174.99 E.04118
G1 X53.584 Y175.373 E.04121
G1 X53.077 Y175.663 E.04121
G1 X52.523 Y175.848 E.0412
G1 X51.944 Y175.921 E.04117
G1 X51.362 Y175.88 E.04116
G1 X50.798 Y175.726 E.04125
G1 X50.276 Y175.466 E.04114
G1 X49.815 Y175.108 E.04118
G1 X49.432 Y174.667 E.04121
G1 X49.142 Y174.16 E.04121
G1 X48.957 Y173.606 E.0412
G1 X48.884 Y173.027 E.04117
G1 X48.925 Y172.445 E.04116
G1 X49.079 Y171.881 E.04125
G1 X49.339 Y171.359 E.04114
G1 X49.697 Y170.898 E.04118
G1 X50.138 Y170.515 E.04121
G1 X50.645 Y170.225 E.04121
G1 X51.199 Y170.04 E.0412
G1 X51.709 Y169.973 E.03629
G1 X51.771 Y169.977 E.00438
G1 X51.771 Y169.977 F9000
G1 X51.861 Y170.539
;TYPE:External perimeter
G1 F1200
G1 X52.32 Y170.573 E.03247
G1 X52.803 Y170.72 E.03562
G1 X53.225 Y170.952 E.03397
G1 X53.582 Y171.249 E.03276
G1 X53.884 Y171.626 E.03408
G1 X54.102 Y172.046 E.03338
G1 X54.234 Y172.5 E.03335
G1 X54.275 Y172.972 E.03342
G1 X54.223 Y173.442 E.03336
G1 X54.081 Y173.893 E.03336
G1 X53.853 Y174.308 E.0334
G1 X53.549 Y174.671 E.0334
G1 X53.179 Y174.967 E.03343
G1 X52.759 Y175.185 E.03338
G1 X52.305 Y175.317 E.03335
G1 X51.833 Y175.358 E.03342
G1 X51.363 Y175.306 E.03336
G1 X50.911 Y175.164 E.03342
G1 X50.497 Y174.936 E.03334
G1 X50.134 Y174.631 E.03345
G1 X49.838 Y174.262 E.03337
G1 X49.62 Y173.842 E.03338
G1 X49.488 Y173.388 E.03335
G1 X49.447 Y172.916 E.03342
G1 X49.498 Y172.446 E.03335
G1 X49.641 Y171.994 E.03345
G1 X49.869 Y171.58 E.03334
G1 X50.173 Y171.217 E.0334
G1 X50.543 Y170.921 E.03343
G1 X50.963 Y170.703 E.03338
